X:1
T: Sweet Dreams
R: reel
M: 4/4
L: 1/8
K: Cmin
|: CC cc EeCc| A,A, Ac G,GBc | CC cc EeCc | A,A, Ac G,GBc :|
| "Ab" A,z A,A, zA,A,A,| "G" G,z G,G, zG,G,G,| "Cmin" Cz CC zCCC| "Fmin"F,z F,F, zF,F,F,|
| "Ab"A,z A,A, zA,A,A, | "G"G,z G,G, zG,G,G, |

